src/images/avatars/avatar-9.svg

<svg fill="none" height="78" viewBox="0 0 47 78" width="47" xmlns="http://www.w3.org/2000/svg"><path d="m2.07829 43c-1.799997-9.1-4.50001-42 21.30001-42 24.4 0 22.7001 30.8 21.6001 42-.9 9.2-40.9001 9.9-42.90011 0z" fill="#5c5c5c" stroke="#4d4d4d" stroke-linejoin="round" stroke-miterlimit="10" stroke-width="2"/><path d="m27.0783 57.9v-14.5h-7.6v14.5c0 1.1-.9 2-2 2h-1.7c0 3.4 3.3 9.4 7.4 9.4s7.4-6.1 7.4-9.4h-1.6c-1.1 0-1.9-.9-1.9-2z" fill="#b88f77" stroke="#4d4d4d" stroke-linejoin="round" stroke-miterlimit="10" stroke-width="2"/><path d="m19.5786 53.2c.1-1.5-.1-1.6-.1-1.6l7.5999.2s-.3 1.7.3 3.9c.3 1.1-7.8999-1.7-7.7999-2.5z" fill="#90674e"/><g stroke="#4d4d4d" stroke-linejoin="round" stroke-miterlimit="10" stroke-width="2"><path d="m27.0783 57.9v-14.5h-7.6v14.5c0 1.1-.9 2-2 2h-1.7c0 3.4 3.3 9.4 7.4 9.4s7.4-6.1 7.4-9.4h-1.6c-1.1 0-1.9-.9-1.9-2z" fill="#f1cbbc"/><path d="m7.17827 37.7c2.1539 0 3.90003-1.7461 3.90003-3.9s-1.74613-3.9-3.90003-3.9-3.89995 1.7461-3.89995 3.9 1.74605 3.9 3.89995 3.9z" fill="#f1cbbc"/><path d="m39.2786 37.7c2.1539 0 3.9-1.7461 3.9-3.9s-1.7461-3.9-3.9-3.9-3.9001 1.7461-3.9001 3.9 1.7462 3.9 3.9001 3.9z" fill="#f1cbbc"/><path d="m6.97852 33.4c.1 9.3 6.99998 18.9 15.89998 19.1 9.2.3 16.7-8.2 16.7-18.7 0 0-.5-8.8-1.1-10.5-2.5 1-3.8 1.5-5.5 1.6l-.3-2.6c-3 .5-7.8.7-10.4 0l-.2 2.4c-3.3-.2-11.5-.7-13.70002-1.2-.5 1.5-1.39996 6.8-1.39996 9.9z" fill="#f1cbbc"/></g><path d="m16.3784 34c.8285 0 1.5-.6716 1.5-1.5s-.6715-1.5-1.5-1.5c-.8284 0-1.5.6716-1.5 1.5s.6716 1.5 1.5 1.5z" fill="#4d4d4d"/><path d="m30.1785 34c.8284 0 1.5-.6716 1.5-1.5s-.6716-1.5-1.5-1.5c-.8285 0-1.5.6716-1.5 1.5s.6715 1.5 1.5 1.5z" fill="#4d4d4d"/><path d="m25.0784 45.1c-.8 1.3-2.9 1.1-3.7 0" stroke="#4d4d4d" stroke-linecap="round" stroke-linejoin="round" stroke-miterlimit="10" stroke-width="2"/><path d="m43.5785 67.3c0-4.4-3.6-8-8-8h-7.2v-3.3c0 .8-10.5.8-10.5 0v3.3h-7c-4.39997 0-7.99996 3.6-7.99996 8v1.3c5.29999 4.9 12.39996 7.8 20.19996 7.8 7.9 0 15-3 20.4-8v-1.1z" fill="#efab33" stroke="#4d4d4d" stroke-linejoin="round" stroke-miterlimit="10" stroke-width="2"/><path d="m9.37842 68.3v4.4" stroke="#4d4d4d" stroke-linecap="round" stroke-linejoin="round" stroke-miterlimit="10" stroke-width="2"/><path d="m37.2783 68.3v4.4" stroke="#4d4d4d" stroke-linecap="round" stroke-linejoin="round" stroke-miterlimit="10" stroke-width="2"/><path d="m10.4783 16.2c-1.00003 2.2-1.70008 4.6-2.30008 7.6z" fill="#fcc5af"/><path d="m10.4783 16.2c-1.00003 2.2-1.70008 4.6-2.30008 7.6" stroke="#4d4d4d" stroke-linecap="round" stroke-linejoin="round" stroke-miterlimit="10" stroke-width="2"/><path d="m14.2782 19.1c-.3 1.4-.6001 3-.7001 4.7z" fill="#fcc5af"/><path d="m14.2782 19.1c-.3 1.4-.6001 3-.7001 4.7" stroke="#4d4d4d" stroke-linecap="round" stroke-linejoin="round" stroke-miterlimit="10" stroke-width="1.8189"/><path d="m22.5782 18.1c-.4 1.8-.5 4.3-.5 6.4z" fill="#fcc5af"/><path d="m22.5782 18.1c-.4 1.8-.5 4.3-.5 6.4" stroke="#4d4d4d" stroke-linecap="round" stroke-linejoin="round" stroke-miterlimit="10" stroke-width="1.8189"/><path d="m31.7783 17.9c.6 2.2.9 3.8 1 6.2z" fill="#fcc5af"/><path d="m31.7783 17.9c.6 2.2.9 3.8 1 6.2" stroke="#4d4d4d" stroke-linecap="round" stroke-linejoin="round" stroke-miterlimit="10" stroke-width="1.8189"/><path d="m36.0781 15.3c.8 1.5 2.3001 6.1 2.5001 8.8z" fill="#fcc5af"/><path d="m36.0781 15.3c.8 1.5 2.3001 6.1 2.5001 8.8" stroke="#4d4d4d" stroke-linecap="round" stroke-linejoin="round" stroke-miterlimit="10" stroke-width="2"/><path d="m21.7784 35.9v1.6c0 .7.6 1.3 1.3 1.3h.9001" stroke="#4d4d4d" stroke-linecap="round" stroke-linejoin="round" stroke-miterlimit="10" stroke-width="2"/><path d="m17.8785 59.3c0 1.1 10.5 1.1 10.5 0z" fill="#efab33"/><path d="m17.8785 59.3c0 1.1 10.5 1.1 10.5 0" stroke="#4d4d4d" stroke-linejoin="round" stroke-miterlimit="10" stroke-width="2"/><path d="m34.0785 38.6c1.215 0 2.2-.985 2.2-2.2s-.985-2.2-2.2-2.2c-1.2151 0-2.2001.985-2.2001 2.2s.985 2.2 2.2001 2.2z" fill="#f7b69d"/><path d="m12.3784 38.6c1.215 0 2.2-.985 2.2-2.2s-.985-2.2-2.2-2.2c-1.2151 0-2.2001.985-2.2001 2.2s.985 2.2 2.2001 2.2z" fill="#f7b69d"/></svg>

<svg width="47" height="78" viewBox="0 0 47 78" fill="none" xmlns="http://www.w3.org/2000/svg">
<path d="M2.07829 43C0.278293 33.9 -2.42172 1 23.3783 1C47.7783 1 46.0784 31.8 44.9784 43C44.0784 52.2 4.0783 52.9 2.07829 43Z" fill="#5C5C5C" stroke="#4D4D4D" stroke-width="2" stroke-miterlimit="10" stroke-linejoin="round"/>
<path d="M27.0783 57.9V43.4H19.4783V57.9C19.4783 59 18.5783 59.9 17.4783 59.9H15.7783C15.7783 63.3 19.0783 69.3 23.1783 69.3C27.2783 69.3 30.5783 63.2 30.5783 59.9H28.9783C27.8783 59.9 27.0783 59 27.0783 57.9Z" fill="#B88F77" stroke="#4D4D4D" stroke-width="2" stroke-miterlimit="10" stroke-linejoin="round"/>
<path d="M19.5786 53.2C19.6786 51.7 19.4786 51.6 19.4786 51.6L27.0785 51.8C27.0785 51.8 26.7785 53.5 27.3785 55.7C27.6785 56.8 19.4786 54 19.5786 53.2Z" fill="#90674E"/>
<path d="M27.0783 57.9V43.4H19.4783V57.9C19.4783 59 18.5783 59.9 17.4783 59.9H15.7783C15.7783 63.3 19.0783 69.3 23.1783 69.3C27.2783 69.3 30.5783 63.2 30.5783 59.9H28.9783C27.8783 59.9 27.0783 59 27.0783 57.9Z" fill="#F1CBBC" stroke="#4D4D4D" stroke-width="2" stroke-miterlimit="10" stroke-linejoin="round"/>
<path d="M7.17827 37.7C9.33217 37.7 11.0783 35.9539 11.0783 33.8C11.0783 31.6461 9.33217 29.9 7.17827 29.9C5.02437 29.9 3.27832 31.6461 3.27832 33.8C3.27832 35.9539 5.02437 37.7 7.17827 37.7Z" fill="#F1CBBC" stroke="#4D4D4D" stroke-width="2" stroke-miterlimit="10" stroke-linejoin="round"/>
<path d="M39.2786 37.7C41.4325 37.7 43.1786 35.9539 43.1786 33.8C43.1786 31.6461 41.4325 29.9 39.2786 29.9C37.1247 29.9 35.3785 31.6461 35.3785 33.8C35.3785 35.9539 37.1247 37.7 39.2786 37.7Z" fill="#F1CBBC" stroke="#4D4D4D" stroke-width="2" stroke-miterlimit="10" stroke-linejoin="round"/>
<path d="M6.97852 33.4C7.07852 42.7 13.9785 52.3 22.8785 52.5C32.0785 52.8 39.5785 44.3 39.5785 33.8C39.5785 33.8 39.0785 25 38.4785 23.3C35.9785 24.3 34.6785 24.8 32.9785 24.9L32.6785 22.3C29.6785 22.8 24.8785 23 22.2785 22.3L22.0785 24.7C18.7785 24.5 10.5785 24 8.37848 23.5C7.87848 25 6.97852 30.3 6.97852 33.4Z" fill="#F1CBBC" stroke="#4D4D4D" stroke-width="2" stroke-miterlimit="10" stroke-linejoin="round"/>
<path d="M16.3784 34C17.2069 34 17.8784 33.3284 17.8784 32.5C17.8784 31.6716 17.2069 31 16.3784 31C15.55 31 14.8784 31.6716 14.8784 32.5C14.8784 33.3284 15.55 34 16.3784 34Z" fill="#4D4D4D"/>
<path d="M30.1785 34C31.0069 34 31.6785 33.3284 31.6785 32.5C31.6785 31.6716 31.0069 31 30.1785 31C29.35 31 28.6785 31.6716 28.6785 32.5C28.6785 33.3284 29.35 34 30.1785 34Z" fill="#4D4D4D"/>
<path d="M25.0784 45.1C24.2784 46.4 22.1784 46.2 21.3784 45.1" stroke="#4D4D4D" stroke-width="2" stroke-miterlimit="10" stroke-linecap="round" stroke-linejoin="round"/>
<path d="M43.5785 67.3C43.5785 62.9 39.9785 59.3 35.5785 59.3H28.3785V56C28.3785 56.8 17.8785 56.8 17.8785 56V59.3H10.8785C6.47853 59.3 2.87854 62.9 2.87854 67.3V68.6C8.17853 73.5 15.2785 76.4 23.0785 76.4C30.9785 76.4 38.0785 73.4 43.4785 68.4V67.3H43.5785Z" fill="#EFAB33" stroke="#4D4D4D" stroke-width="2" stroke-miterlimit="10" stroke-linejoin="round"/>
<path d="M9.37842 68.3V72.7" stroke="#4D4D4D" stroke-width="2" stroke-miterlimit="10" stroke-linecap="round" stroke-linejoin="round"/>
<path d="M37.2783 68.3V72.7" stroke="#4D4D4D" stroke-width="2" stroke-miterlimit="10" stroke-linecap="round" stroke-linejoin="round"/>
<path d="M10.4783 16.2C9.47827 18.4 8.77822 20.8 8.17822 23.8L10.4783 16.2Z" fill="#FCC5AF"/>
<path d="M10.4783 16.2C9.47827 18.4 8.77822 20.8 8.17822 23.8" stroke="#4D4D4D" stroke-width="2" stroke-miterlimit="10" stroke-linecap="round" stroke-linejoin="round"/>
<path d="M14.2782 19.1C13.9782 20.5 13.6781 22.1 13.5781 23.8L14.2782 19.1Z" fill="#FCC5AF"/>
<path d="M14.2782 19.1C13.9782 20.5 13.6781 22.1 13.5781 23.8" stroke="#4D4D4D" stroke-width="1.8189" stroke-miterlimit="10" stroke-linecap="round" stroke-linejoin="round"/>
<path d="M22.5782 18.1C22.1782 19.9 22.0782 22.4 22.0782 24.5L22.5782 18.1Z" fill="#FCC5AF"/>
<path d="M22.5782 18.1C22.1782 19.9 22.0782 22.4 22.0782 24.5" stroke="#4D4D4D" stroke-width="1.8189" stroke-miterlimit="10" stroke-linecap="round" stroke-linejoin="round"/>
<path d="M31.7783 17.9C32.3783 20.1 32.6783 21.7 32.7783 24.1L31.7783 17.9Z" fill="#FCC5AF"/>
<path d="M31.7783 17.9C32.3783 20.1 32.6783 21.7 32.7783 24.1" stroke="#4D4D4D" stroke-width="1.8189" stroke-miterlimit="10" stroke-linecap="round" stroke-linejoin="round"/>
<path d="M36.0781 15.3C36.8781 16.8 38.3782 21.4 38.5782 24.1L36.0781 15.3Z" fill="#FCC5AF"/>
<path d="M36.0781 15.3C36.8781 16.8 38.3782 21.4 38.5782 24.1" stroke="#4D4D4D" stroke-width="2" stroke-miterlimit="10" stroke-linecap="round" stroke-linejoin="round"/>
<path d="M21.7784 35.9V37.5C21.7784 38.2 22.3784 38.8 23.0784 38.8H23.9785" stroke="#4D4D4D" stroke-width="2" stroke-miterlimit="10" stroke-linecap="round" stroke-linejoin="round"/>
<path d="M17.8785 59.3C17.8785 60.4 28.3785 60.4 28.3785 59.3H17.8785Z" fill="#EFAB33"/>
<path d="M17.8785 59.3C17.8785 60.4 28.3785 60.4 28.3785 59.3" stroke="#4D4D4D" stroke-width="2" stroke-miterlimit="10" stroke-linejoin="round"/>
<path d="M34.0785 38.6C35.2935 38.6 36.2785 37.615 36.2785 36.4C36.2785 35.185 35.2935 34.2 34.0785 34.2C32.8634 34.2 31.8784 35.185 31.8784 36.4C31.8784 37.615 32.8634 38.6 34.0785 38.6Z" fill="#F7B69D"/>
<path d="M12.3784 38.6C13.5934 38.6 14.5784 37.615 14.5784 36.4C14.5784 35.185 13.5934 34.2 12.3784 34.2C11.1633 34.2 10.1783 35.185 10.1783 36.4C10.1783 37.615 11.1633 38.6 12.3784 38.6Z" fill="#F7B69D"/>
</svg>
